images/6604742.svg

<?xml version="1.0" encoding="UTF-8"?>
<svg xmlns="http://www.w3.org/2000/svg" xmlns:xlink="http://www.w3.org/1999/xlink" width="300pt" height="300pt" viewBox="0 0 300 300" version="1.1">
<defs>
<g>
<symbol overflow="visible" id="glyph0-0">
<path style="stroke:none;" d="M 0.796875 2.828125 L 0.796875 -11.28125 L 8.796875 -11.28125 L 8.796875 2.828125 Z M 1.703125 1.9375 L 7.90625 1.9375 L 7.90625 -10.390625 L 1.703125 -10.390625 Z M 1.703125 1.9375 "/>
</symbol>
<symbol overflow="visible" id="glyph0-1">
<path style="stroke:none;" d="M 1.578125 -11.671875 L 3.703125 -11.671875 L 8.875 -1.90625 L 8.875 -11.671875 L 10.40625 -11.671875 L 10.40625 0 L 8.28125 0 L 3.109375 -9.765625 L 3.109375 0 L 1.578125 0 Z M 1.578125 -11.671875 "/>
</symbol>
<symbol overflow="visible" id="glyph0-2">
<path style="stroke:none;" d="M 1.578125 -11.671875 L 3.15625 -11.671875 L 3.15625 -6.890625 L 8.890625 -6.890625 L 8.890625 -11.671875 L 10.46875 -11.671875 L 10.46875 0 L 8.890625 0 L 8.890625 -5.5625 L 3.15625 -5.5625 L 3.15625 0 L 1.578125 0 Z M 1.578125 -11.671875 "/>
</symbol>
<symbol overflow="visible" id="glyph0-3">
<path style="stroke:none;" d="M 6.3125 -10.59375 C 5.164062 -10.59375 4.253906 -10.164062 3.578125 -9.3125 C 2.898438 -8.457031 2.5625 -7.296875 2.5625 -5.828125 C 2.5625 -4.359375 2.898438 -3.195312 3.578125 -2.34375 C 4.253906 -1.488281 5.164062 -1.0625 6.3125 -1.0625 C 7.457031 -1.0625 8.363281 -1.488281 9.03125 -2.34375 C 9.695312 -3.195312 10.03125 -4.359375 10.03125 -5.828125 C 10.03125 -7.296875 9.695312 -8.457031 9.03125 -9.3125 C 8.363281 -10.164062 7.457031 -10.59375 6.3125 -10.59375 Z M 6.3125 -11.875 C 7.945312 -11.875 9.253906 -11.328125 10.234375 -10.234375 C 11.210938 -9.140625 11.703125 -7.671875 11.703125 -5.828125 C 11.703125 -3.984375 11.210938 -2.507812 10.234375 -1.40625 C 9.253906 -0.3125 7.945312 0.234375 6.3125 0.234375 C 4.664062 0.234375 3.351562 -0.3125 2.375 -1.40625 C 1.394531 -2.507812 0.90625 -3.984375 0.90625 -5.828125 C 0.90625 -7.671875 1.394531 -9.140625 2.375 -10.234375 C 3.351562 -11.328125 4.664062 -11.875 6.3125 -11.875 Z M 6.3125 -11.875 "/>
</symbol>
</g>
</defs>
<g id="surface54121">
<rect x="0" y="0" width="300" height="300" style="fill:rgb(100%,100%,100%);fill-opacity:1;stroke:none;"/>
<path style="fill:none;stroke-width:1;stroke-linecap:butt;stroke-linejoin:miter;stroke:rgb(0%,0%,0%);stroke-opacity:1;stroke-miterlimit:10;" d="M 208.851562 153.136719 L 208.851562 153.136719 M 211.195312 155.003906 L 211.695312 154.089844 M 213.542969 156.875 L 214.539062 155.042969 M 215.886719 158.746094 L 217.382812 156 M 218.234375 160.617188 L 220.226562 156.953125 M 220.578125 162.488281 L 223.070312 157.90625 M 222.925781 164.355469 L 225.914062 158.863281 M 225.269531 166.226562 L 228.757812 159.816406 M 227.617188 168.097656 L 231.601562 160.769531 M 229.960938 169.96875 L 234.449219 161.722656 M 232.308594 171.835938 L 237.292969 162.679688 M 234.652344 173.707031 L 240.136719 163.632812 M 237 175.578125 L 242.980469 164.585938 M 239.21875 177.347656 L 245.671875 165.492188 "/>
<path style="fill:none;stroke-width:1.2;stroke-linecap:butt;stroke-linejoin:miter;stroke:rgb(0%,0%,0%);stroke-opacity:1;stroke-miterlimit:10;" d="M 208.851562 153.136719 L 171.027344 147.445312 "/>
<path style="fill:none;stroke-width:1.2;stroke-linecap:butt;stroke-linejoin:miter;stroke:rgb(0%,0%,0%);stroke-opacity:1;stroke-miterlimit:10;" d="M 208.851562 153.136719 L 196.675781 189.398438 "/>
<path style="fill:none;stroke-width:1.2;stroke-linecap:butt;stroke-linejoin:miter;stroke:rgb(0%,0%,100%);stroke-opacity:1;stroke-miterlimit:10;" d="M 232.691406 123.222656 L 220.769531 138.179688 "/>
<path style="fill:none;stroke-width:1.2;stroke-linecap:butt;stroke-linejoin:miter;stroke:rgb(0%,0%,0%);stroke-opacity:1;stroke-miterlimit:10;" d="M 220.769531 138.179688 L 208.851562 153.136719 "/>
<path style="fill:none;stroke-width:1.2;stroke-linecap:butt;stroke-linejoin:miter;stroke:rgb(0%,0%,0%);stroke-opacity:1;stroke-miterlimit:10;" d="M 171.027344 147.445312 L 147.183594 177.355469 "/>
<path style="fill:none;stroke-width:1.2;stroke-linecap:butt;stroke-linejoin:miter;stroke:rgb(0%,0%,0%);stroke-opacity:1;stroke-miterlimit:10;" d="M 161.605469 144.824219 L 142.53125 168.753906 "/>
<path style="fill:none;stroke-width:1.2;stroke-linecap:butt;stroke-linejoin:miter;stroke:rgb(0%,0%,0%);stroke-opacity:1;stroke-miterlimit:10;" d="M 157.042969 111.84375 L 171.027344 147.445312 "/>
<path style="fill:none;stroke-width:1.2;stroke-linecap:butt;stroke-linejoin:miter;stroke:rgb(0%,0%,0%);stroke-opacity:1;stroke-miterlimit:10;" d="M 147.183594 177.355469 L 109.359375 171.664062 "/>
<path style="fill:none;stroke-width:1.2;stroke-linecap:butt;stroke-linejoin:miter;stroke:rgb(0%,0%,0%);stroke-opacity:1;stroke-miterlimit:10;" d="M 109.359375 171.664062 L 95.378906 136.0625 "/>
<path style="fill:none;stroke-width:1.2;stroke-linecap:butt;stroke-linejoin:miter;stroke:rgb(0%,0%,0%);stroke-opacity:1;stroke-miterlimit:10;" d="M 116.339844 164.8125 L 105.152344 136.332031 "/>
<path style="fill:none;stroke-width:1.2;stroke-linecap:butt;stroke-linejoin:miter;stroke:rgb(0%,0%,0%);stroke-opacity:1;stroke-miterlimit:10;" d="M 109.359375 171.664062 L 97.441406 186.621094 "/>
<path style="fill:none;stroke-width:1.2;stroke-linecap:butt;stroke-linejoin:miter;stroke:rgb(100%,0%,0%);stroke-opacity:1;stroke-miterlimit:10;" d="M 97.441406 186.621094 L 85.519531 201.574219 "/>
<path style="fill:none;stroke-width:1.2;stroke-linecap:butt;stroke-linejoin:miter;stroke:rgb(0%,0%,0%);stroke-opacity:1;stroke-miterlimit:10;" d="M 95.378906 136.0625 L 119.21875 106.152344 "/>
<path style="fill:none;stroke-width:1.2;stroke-linecap:butt;stroke-linejoin:miter;stroke:rgb(0%,0%,0%);stroke-opacity:1;stroke-miterlimit:10;" d="M 95.378906 136.0625 L 76.464844 133.214844 "/>
<path style="fill:none;stroke-width:1.2;stroke-linecap:butt;stroke-linejoin:miter;stroke:rgb(100%,0%,0%);stroke-opacity:1;stroke-miterlimit:10;" d="M 76.464844 133.214844 L 57.554688 130.371094 "/>
<path style="fill:none;stroke-width:1.2;stroke-linecap:butt;stroke-linejoin:miter;stroke:rgb(0%,0%,0%);stroke-opacity:1;stroke-miterlimit:10;" d="M 119.21875 106.152344 L 157.042969 111.84375 "/>
<path style="fill:none;stroke-width:1.2;stroke-linecap:butt;stroke-linejoin:miter;stroke:rgb(0%,0%,0%);stroke-opacity:1;stroke-miterlimit:10;" d="M 121.660156 115.621094 L 151.921875 120.171875 "/>
<path style="fill:none;stroke-width:1.2;stroke-linecap:butt;stroke-linejoin:miter;stroke:rgb(0%,0%,0%);stroke-opacity:1;stroke-miterlimit:10;" d="M 157.042969 111.84375 L 180.882812 81.929688 "/>
<path style="fill:none;stroke-width:1.2;stroke-linecap:butt;stroke-linejoin:miter;stroke:rgb(0%,0%,0%);stroke-opacity:1;stroke-miterlimit:10;" d="M 180.882812 81.929688 L 218.707031 87.621094 "/>
<path style="fill:none;stroke-width:1.2;stroke-linecap:butt;stroke-linejoin:miter;stroke:rgb(0%,0%,0%);stroke-opacity:1;stroke-miterlimit:10;" d="M 218.707031 87.621094 L 225.699219 105.421875 "/>
<path style="fill:none;stroke-width:1.2;stroke-linecap:butt;stroke-linejoin:miter;stroke:rgb(0%,0%,100%);stroke-opacity:1;stroke-miterlimit:10;" d="M 225.699219 105.421875 L 232.691406 123.222656 "/>
<path style=" stroke:none;fill-rule:nonzero;fill:rgb(100%,100%,100%);fill-opacity:1;" d="M 220.691406 113.722656 L 244.691406 113.722656 L 244.691406 132.722656 L 220.691406 132.722656 Z M 220.691406 113.722656 "/>
<g style="fill:rgb(0%,0%,100%);fill-opacity:1;">
  <use xlink:href="#glyph0-1" x="220.691406" y="128.574219"/>
  <use xlink:href="#glyph0-2" x="232.660156" y="128.574219"/>
</g>
<path style=" stroke:none;fill-rule:nonzero;fill:rgb(100%,100%,100%);fill-opacity:1;" d="M 32.554688 120.871094 L 57.554688 120.871094 L 57.554688 139.871094 L 32.554688 139.871094 Z M 32.554688 120.871094 "/>
<g style="fill:rgb(100%,0%,0%);fill-opacity:1;">
  <use xlink:href="#glyph0-2" x="32.554688" y="135.722656"/>
  <use xlink:href="#glyph0-3" x="44.585938" y="135.722656"/>
</g>
<path style=" stroke:none;fill-rule:nonzero;fill:rgb(100%,100%,100%);fill-opacity:1;" d="M 60.519531 192.074219 L 85.519531 192.074219 L 85.519531 211.074219 L 60.519531 211.074219 Z M 60.519531 192.074219 "/>
<g style="fill:rgb(100%,0%,0%);fill-opacity:1;">
  <use xlink:href="#glyph0-2" x="60.519531" y="206.925781"/>
  <use xlink:href="#glyph0-3" x="72.550781" y="206.925781"/>
</g>
<path style="fill:none;stroke-width:1.2;stroke-linecap:butt;stroke-linejoin:miter;stroke:rgb(0%,0%,0%);stroke-opacity:1;stroke-miterlimit:10;" d="M 195.785156 184.984375 L 177.039062 188.78125 "/>
<path style="fill:none;stroke-width:1.2;stroke-linecap:butt;stroke-linejoin:miter;stroke:rgb(100%,0%,0%);stroke-opacity:1;stroke-miterlimit:10;" d="M 177.039062 188.78125 L 158.292969 192.574219 "/>
<path style="fill:none;stroke-width:1.2;stroke-linecap:butt;stroke-linejoin:miter;stroke:rgb(0%,0%,0%);stroke-opacity:1;stroke-miterlimit:10;" d="M 197.570312 193.808594 L 178.824219 197.601562 "/>
<path style="fill:none;stroke-width:1.2;stroke-linecap:butt;stroke-linejoin:miter;stroke:rgb(100%,0%,0%);stroke-opacity:1;stroke-miterlimit:10;" d="M 178.824219 197.601562 L 160.082031 201.394531 "/>
<path style="fill:none;stroke-width:1.2;stroke-linecap:butt;stroke-linejoin:miter;stroke:rgb(0%,0%,0%);stroke-opacity:1;stroke-miterlimit:10;" d="M 196.675781 189.398438 L 209.335938 203.734375 "/>
<path style="fill:none;stroke-width:1.2;stroke-linecap:butt;stroke-linejoin:miter;stroke:rgb(100%,0%,0%);stroke-opacity:1;stroke-miterlimit:10;" d="M 209.335938 203.734375 L 221.992188 218.070312 "/>
<path style=" stroke:none;fill-rule:nonzero;fill:rgb(100%,100%,100%);fill-opacity:1;" d="M 146.1875 187.484375 L 159.1875 187.484375 L 159.1875 206.484375 L 146.1875 206.484375 Z M 146.1875 187.484375 "/>
<g style="fill:rgb(100%,0%,0%);fill-opacity:1;">
  <use xlink:href="#glyph0-3" x="146.1875" y="202.335938"/>
</g>
<path style=" stroke:none;fill-rule:nonzero;fill:rgb(100%,100%,100%);fill-opacity:1;" d="M 209.992188 208.570312 L 234.992188 208.570312 L 234.992188 227.570312 L 209.992188 227.570312 Z M 209.992188 208.570312 "/>
<g style="fill:rgb(100%,0%,0%);fill-opacity:1;">
  <use xlink:href="#glyph0-3" x="209.992188" y="223.421875"/>
  <use xlink:href="#glyph0-2" x="222.585938" y="223.421875"/>
</g>
</g>
</svg>

<svg xmlns="http://www.w3.org/2000/svg" xmlns:xlink="http://www.w3.org/1999/xlink" width="300pt" height="300pt" viewBox="0 0 300 300"><defs><symbol overflow="visible"><path d="M.797 2.828v-14.11h8V2.83zm.906-.89h6.203v-12.33H1.703zm0 0"/></symbol><symbol overflow="visible" id="a"><path d="M1.578-11.672h2.125l5.172 9.766v-9.766h1.53V0H8.282L3.11-9.766V0H1.577zm0 0"/></symbol><symbol overflow="visible" id="b"><path d="M1.578-11.672h1.578v4.78H8.89v-4.78h1.58V0H8.89v-5.563H3.157V0H1.578zm0 0"/></symbol><symbol overflow="visible" id="c"><path d="M6.313-10.594c-1.15 0-2.06.43-2.735 1.28-.68.857-1.015 2.017-1.015 3.486 0 1.47.335 2.633 1.015 3.484.676.856 1.586 1.28 2.735 1.28 1.144.002 2.05-.424 2.718-1.28.665-.85 1-2.015 1-3.484 0-1.47-.335-2.63-1-3.484-.667-.852-1.573-1.282-2.717-1.282zm0-1.28c1.632 0 2.94.546 3.92 1.64.978 1.093 1.47 2.562 1.47 4.406 0 1.844-.492 3.32-1.47 4.422-.98 1.093-2.288 1.64-3.92 1.64-1.65 0-2.96-.546-3.938-1.64-.98-1.102-1.47-2.578-1.47-4.422 0-1.844.49-3.313 1.47-4.406.977-1.094 2.29-1.64 3.938-1.64zm0 0"/></symbol></defs><g><path fill="#fff" d="M0 0h300v300H0z"/><path d="M208.852 153.137m2.343 1.867l.5-.914m1.848 2.785l.996-1.832m1.347 3.703l1.496-2.746m.85 4.617l1.994-3.664m.35 5.535l2.493-4.582m-.144 6.45l2.988-5.493m-.644 7.364l3.488-6.41m-1.14 8.28l3.984-7.327m-1.64 9.2l4.487-8.247m-2.14 10.113l4.983-9.156m-2.64 11.027l5.484-10.074M237 175.578l5.98-10.992m-3.76 12.762l6.452-11.856" stroke="#000" stroke-miterlimit="10" fill="none"/><path d="M208.852 153.137l-37.825-5.692M208.852 153.137l-12.176 36.26" stroke-width="1.2" stroke="#000" stroke-miterlimit="10" fill="none"/><path d="M232.69 123.223l-11.92 14.957" stroke-width="1.2" stroke="#00f" stroke-miterlimit="10" fill="none"/><path d="M220.77 138.18l-11.918 14.957M171.027 147.445l-23.843 29.91M161.605 144.824l-19.074 23.93M157.043 111.844l13.984 35.6M147.184 177.355l-37.825-5.69M109.36 171.664l-13.98-35.6M116.34 164.813l-11.188-28.48M109.36 171.664L97.44 186.62" stroke-width="1.2" stroke="#000" stroke-miterlimit="10" fill="none"/><path d="M97.44 186.62l-11.92 14.954" stroke-width="1.2" stroke="#f00" stroke-miterlimit="10" fill="none"/><path d="M95.38 136.063l23.84-29.91M95.38 136.063l-18.915-2.848" stroke-width="1.2" stroke="#000" stroke-miterlimit="10" fill="none"/><path d="M76.465 133.215l-18.91-2.844" stroke-width="1.2" stroke="#f00" stroke-miterlimit="10" fill="none"/><path d="M119.22 106.152l37.823 5.692M121.66 115.62l30.262 4.552M157.043 111.844l23.84-29.914M180.883 81.93l37.824 5.69M218.707 87.62l6.992 17.802" stroke-width="1.2" stroke="#000" stroke-miterlimit="10" fill="none"/><path d="M225.7 105.422l6.99 17.8" stroke-width="1.2" stroke="#00f" stroke-miterlimit="10" fill="none"/><path d="M220.69 113.723h24v19h-24zm0 0" fill="#fff"/><g fill="#00f"><use xlink:href="#a" x="220.691" y="128.574"/><use xlink:href="#b" x="232.66" y="128.574"/></g><path d="M32.555 120.87h25v19h-25zm0 0" fill="#fff"/><g fill="#f00"><use xlink:href="#b" x="32.555" y="135.723"/><use xlink:href="#c" x="44.586" y="135.723"/></g><path d="M60.52 192.074h25v19h-25zm0 0" fill="#fff"/><g fill="#f00"><use xlink:href="#b" x="60.52" y="206.926"/><use xlink:href="#c" x="72.551" y="206.926"/></g><path d="M195.785 184.984l-18.746 3.797" stroke-width="1.2" stroke="#000" stroke-miterlimit="10" fill="none"/><path d="M177.04 188.78l-18.747 3.794" stroke-width="1.2" stroke="#f00" stroke-miterlimit="10" fill="none"/><path d="M197.57 193.81l-18.746 3.792" stroke-width="1.2" stroke="#000" stroke-miterlimit="10" fill="none"/><path d="M178.824 197.602l-18.742 3.793" stroke-width="1.2" stroke="#f00" stroke-miterlimit="10" fill="none"/><path d="M196.676 189.398l12.66 14.336" stroke-width="1.2" stroke="#000" stroke-miterlimit="10" fill="none"/><path d="M209.336 203.734l12.656 14.336" stroke-width="1.2" stroke="#f00" stroke-miterlimit="10" fill="none"/><path d="M146.188 187.484h13v19h-13zm0 0" fill="#fff"/><use xlink:href="#c" x="146.188" y="202.336" fill="#f00"/><path d="M209.992 208.57h25v19h-25zm0 0" fill="#fff"/><g fill="#f00"><use xlink:href="#c" x="209.992" y="223.422"/><use xlink:href="#b" x="222.586" y="223.422"/></g></g></svg>
